COLOR/action 16/16/distribute-remove-overlaps.svg

<svg height="16" viewBox="0 0 16 16" width="16" xmlns="http://www.w3.org/2000/svg"><g stroke-width=".857143"><path d="m2 2v3.4285714h3.4285714v-3.4285714zm4.2857143 0v12h3.4285714v-12zm4.2857147 0v12h3.428571v-12zm-8.571429 4.2857143v7.7142857h3.4285714v-7.7142857z" fill="#1a7fd4"/><path d="m2 2v.5h3.4277344v-.5zm4.2851562 0v.5h3.4296876v-.5zm4.2871098 0v.5h3.427734v-.5zm-8.572266 4.2851562v.5h3.4277344v-.5z" fill="#fff" opacity=".3"/><path d="m2 4.9277344v.5h3.4277344v-.5zm0 8.5722656v.5h3.4277344v-.5zm4.2851562 0v.5h3.4296876v-.5zm4.2871098 0v.5h3.427734v-.5z" opacity=".2"/></g></svg>

<?xml version="1.0" encoding="UTF-8" standalone="no"?>
<svg
   xmlns:dc="http://purl.org/dc/elements/1.1/"
   xmlns:cc="http://creativecommons.org/ns#"
   xmlns:rdf="http://www.w3.org/1999/02/22-rdf-syntax-ns#"
   xmlns:svg="http://www.w3.org/2000/svg"
   xmlns="http://www.w3.org/2000/svg"
   xmlns:sodipodi="http://sodipodi.sourceforge.net/DTD/sodipodi-0.dtd"
   xmlns:inkscape="http://www.inkscape.org/namespaces/inkscape"
   height="16"
   viewBox="0 0 16 16"
   width="16"
   version="1.1"
   id="svg4"
   sodipodi:docname="distribute-remove-overlaps.svg"
   inkscape:version="0.92.4 (5da689c313, 2019-01-14)">
  <metadata
     id="metadata10">
    <rdf:RDF>
      <cc:Work
         rdf:about="">
        <dc:format>image/svg+xml</dc:format>
        <dc:type
           rdf:resource="http://purl.org/dc/dcmitype/StillImage" />
      </cc:Work>
    </rdf:RDF>
  </metadata>
  <defs
     id="defs8" />
  <sodipodi:namedview
     pagecolor="#ffffff"
     bordercolor="#666666"
     borderopacity="1"
     objecttolerance="10"
     gridtolerance="10"
     guidetolerance="10"
     inkscape:pageopacity="0"
     inkscape:pageshadow="2"
     inkscape:window-width="1920"
     inkscape:window-height="1016"
     id="namedview6"
     showgrid="false"
     inkscape:zoom="14.75"
     inkscape:cx="8"
     inkscape:cy="8"
     inkscape:window-x="0"
     inkscape:window-y="27"
     inkscape:window-maximized="1"
     inkscape:current-layer="svg4" />
  <path
     d="M 2,2 V 5.4285714 H 5.4285714 V 2 Z M 6.2857143,2 V 14 H 9.7142857 V 2 Z M 10.571429,2 V 14 H 14 V 2 Z M 2,6.2857143 V 14 H 5.4285714 V 6.2857143 Z"
     id="path2"
     inkscape:connector-curvature="0"
     style="fill:#1a7fd4;stroke-width:0.85714287" />
  <path
     style="fill:#ffffff;stroke-width:0.85714287;fill-opacity:1;opacity:0.3"
     d="M 2 2 L 2 2.5 L 5.4277344 2.5 L 5.4277344 2 L 2 2 z M 6.2851562 2 L 6.2851562 2.5 L 9.7148438 2.5 L 9.7148438 2 L 6.2851562 2 z M 10.572266 2 L 10.572266 2.5 L 14 2.5 L 14 2 L 10.572266 2 z M 2 6.2851562 L 2 6.7851562 L 5.4277344 6.7851562 L 5.4277344 6.2851562 L 2 6.2851562 z "
     id="path817" />
  <path
     style="fill:#000000;stroke-width:0.85714287;fill-opacity:1;opacity:0.2"
     d="M 2 4.9277344 L 2 5.4277344 L 5.4277344 5.4277344 L 5.4277344 4.9277344 L 2 4.9277344 z M 2 13.5 L 2 14 L 5.4277344 14 L 5.4277344 13.5 L 2 13.5 z M 6.2851562 13.5 L 6.2851562 14 L 9.7148438 14 L 9.7148438 13.5 L 6.2851562 13.5 z M 10.572266 13.5 L 10.572266 14 L 14 14 L 14 13.5 L 10.572266 13.5 z "
     id="path822" />
</svg>
